flaticon/transport/hot-air-balloon.svg

<svg xmlns="http://www.w3.org/2000/svg" width="32" height="32" viewBox="0 0 24 24">
    <path d="M 19.199219 7.199219 C 19.199219 3.238281 15.960938 0 12 0 C 8.039062 0 4.800781 3.238281 4.800781 7.199219 C 4.800781 9.878906 6.285156 12.230469 8.472656 13.46875 L 10.230469 18.398438 L 9.160156 18.398438 C 8.761719 18.398438 8.398438 18.761719 8.398438 19.160156 L 8.398438 20.039062 C 8.398438 20.441406 8.761719 20.800781 9.160156 20.800781 L 9.160156 22.960938 C 9.160156 23.558594 9.640625 24 10.199219 24 L 13.761719 24 C 14.320312 24 14.800781 23.558594 14.761719 22.960938 L 14.761719 20.800781 L 14.839844 20.800781 C 15.238281 20.800781 15.601562 20.441406 15.601562 20.039062 L 15.601562 19.160156 C 15.601562 18.761719 15.28125 18.398438 14.839844 18.398438 L 13.761719 18.398438 L 15.511719 13.480469 C 17.707031 12.242188 19.199219 9.886719 19.199219 7.199219 Z M 18.398438 7.199219 C 18.398438 10.128906 16.40625 12.613281 13.710938 13.367188 C 14.621094 12.128906 15.199219 9.886719 15.199219 7.199219 C 15.199219 4.515625 14.621094 2.269531 13.710938 1.035156 C 16.40625 1.785156 18.398438 4.273438 18.398438 7.199219 Z M 9.601562 7.199219 C 9.601562 3.441406 10.878906 0.800781 12 0.800781 C 13.121094 0.800781 14.398438 3.441406 14.398438 7.199219 C 14.398438 10.960938 13.121094 13.601562 12 13.601562 C 10.878906 13.601562 9.601562 10.960938 9.601562 7.199219 Z M 5.601562 7.199219 C 5.601562 4.273438 7.59375 1.785156 10.289062 1.035156 C 9.378906 2.269531 8.800781 4.515625 8.800781 7.199219 C 8.800781 9.886719 9.378906 12.128906 10.289062 13.367188 C 7.59375 12.613281 5.601562 10.128906 5.601562 7.199219 Z M 9.492188 13.945312 C 10.152344 14.195312 10.863281 14.347656 11.601562 14.386719 L 11.601562 18.398438 L 11.082031 18.398438 Z M 14.039062 22.960938 C 14.039062 23.078125 13.921875 23.199219 13.800781 23.199219 L 10.238281 23.199219 C 10.121094 23.199219 10 23.078125 10 22.960938 L 10 20.800781 L 14.039062 20.800781 Z M 14.800781 20 L 9.199219 20 L 9.199219 19.199219 L 14.800781 19.199219 Z M 12.914062 18.398438 L 12.398438 18.398438 L 12.398438 14.386719 C 13.132812 14.347656 13.835938 14.195312 14.492188 13.953125 Z M 12.914062 18.398438"/>
</svg>

<svg xmlns="http://www.w3.org/2000/svg" width="32" height="32" viewBox="0 0 24 24">
    <path d="M19.2 7.2C19.2 3.237 15.96 0 12 0S4.8 3.238 4.8 7.2c0 2.679 1.485 5.03 3.673 6.269l1.757 4.93H9.16a.792.792 0 0 0-.762.761v.88a.79.79 0 0 0 .762.76v2.16c0 .599.48 1.04 1.04 1.04h3.562c.558 0 1.039-.441 1-1.04V20.8h.078a.79.79 0 0 0 .762-.76v-.88a.762.762 0 0 0-.762-.762h-1.078l1.75-4.918c2.195-1.238 3.687-3.593 3.687-6.28zm-.802 0c0 2.929-1.992 5.413-4.687 6.167.91-1.238 1.488-3.48 1.488-6.168 0-2.683-.578-4.93-1.488-6.164 2.695.75 4.687 3.238 4.687 6.164zm-8.796 0C9.602 3.44 10.879.8 12 .8c1.121 0 2.398 2.641 2.398 6.4 0 3.76-1.277 6.402-2.398 6.402-1.121 0-2.398-2.641-2.398-6.403zm-4 0c0-2.927 1.992-5.415 4.687-6.165C9.38 2.27 8.801 4.515 8.801 7.2c0 2.688.578 4.93 1.488 6.168-2.695-.754-4.687-3.238-4.687-6.168zm3.89 6.745a7 7 0 0 0 2.11.442v4.011h-.52zm4.547 9.016c0 .117-.117.238-.238.238h-3.563c-.117 0-.238-.12-.238-.238V20.8h4.04zM14.801 20H9.199v-.8h5.602zm-1.887-1.602h-.516v-4.011a7.136 7.136 0 0 0 2.094-.434zm0 0"/>
</svg>
